includes/Libraries/rinvex/resources/flags/aw.svg

<svg xmlns="http://www.w3.org/2000/svg" xmlns:xlink="http://www.w3.org/1999/xlink" width="900" height="600" viewBox="0 0 27 18"><path d="M0 0h27v18h-27z" fill="#4189dd"/><path d="M0 12h27v1h-27v1h27v1h-27z" fill="#f9d616"/><g fill="#fff" transform="translate(4 4)"><path id="a" d="M0-3l.707 2.293 2.293.707-2.293.707-.707 2.293-.707-2.293-2.293-.707 2.293-.707z"/><use xlink:href="#a" transform="scale(.77)" fill="#d21034"/></g></svg>

<svg xmlns="http://www.w3.org/2000/svg" xmlns:xlink="http://www.w3.org/1999/xlink" width="900" height="600" viewBox="0 0 27 18"><path fill="#4189dd" d="M0 0h27v18H0z"/><path fill="#f9d616" d="M0 12h27v1H0v1h27v1H0z"/><g fill="#fff" transform="translate(4 4)"><path id="a" d="M0-3L.707-.707 3 0 .707.707 0 3-.707.707-3 0l2.293-.707z"/><use fill="#d21034" transform="scale(.77038)" xlink:href="#a"/></g></svg>
